flaticon/transport/car-repair-8.svg

<svg xmlns="http://www.w3.org/2000/svg" width="32" height="32" viewBox="0 0 24 24">
    <path d="M 22.878906 23.320312 L 20.667969 20.953125 C 21.371094 20.175781 21.800781 19.140625 21.800781 18 C 21.800781 17.050781 21.503906 16.175781 21 15.460938 L 21 2 C 21 1.320312 20.480469 0.800781 19.800781 0.800781 L 14.601562 0.800781 C 14.601562 0.359375 14.238281 0 13.800781 0 L 8.199219 0 C 7.761719 0 7.398438 0.359375 7.398438 0.800781 L 2.199219 0.800781 C 1.519531 0.800781 1 1.320312 1 2 L 1 22.800781 C 1 23.480469 1.519531 24 2.199219 24 L 19 24 C 19.238281 24 19.398438 23.839844 19.398438 23.601562 L 19.398438 21.925781 C 19.640625 21.800781 19.871094 21.65625 20.085938 21.492188 L 22.320312 23.878906 C 22.398438 23.960938 22.480469 24 22.601562 24 C 22.679688 24 22.800781 23.960938 22.878906 23.878906 C 23.039062 23.71875 23.039062 23.480469 22.878906 23.320312 Z M 17.398438 21.601562 C 15.398438 21.601562 13.800781 20 13.800781 18 C 13.800781 16.441406 14.773438 15.125 16.148438 14.621094 C 16.15625 14.617188 16.160156 14.617188 16.164062 14.613281 C 16.171875 14.613281 16.179688 14.609375 16.1875 14.609375 C 16.445312 14.523438 16.714844 14.464844 17 14.441406 C 17.046875 14.425781 17.101562 14.414062 17.15625 14.410156 C 17.238281 14.402344 17.316406 14.398438 17.398438 14.398438 C 17.460938 14.398438 17.519531 14.402344 17.578125 14.40625 C 17.582031 14.40625 17.585938 14.40625 17.589844 14.40625 C 18.441406 14.449219 19.210938 14.78125 19.800781 15.3125 C 19.976562 15.46875 20.136719 15.644531 20.28125 15.839844 C 20.289062 15.855469 20.304688 15.871094 20.320312 15.882812 C 20.746094 16.476562 21 17.207031 21 18 C 21 20 19.398438 21.601562 17.398438 21.601562 Z M 8.199219 4 L 13.800781 4 C 14.238281 4 14.601562 3.640625 14.601562 3.199219 L 18.601562 3.199219 L 18.601562 13.761719 C 18.570312 13.753906 18.539062 13.746094 18.507812 13.738281 C 18.464844 13.730469 18.421875 13.71875 18.378906 13.707031 C 18.363281 13.703125 18.347656 13.699219 18.328125 13.699219 C 18.277344 13.6875 18.226562 13.675781 18.175781 13.667969 C 18.167969 13.667969 18.164062 13.664062 18.15625 13.664062 C 18.101562 13.65625 18.042969 13.644531 17.988281 13.640625 C 17.984375 13.636719 17.980469 13.636719 17.976562 13.636719 C 17.917969 13.628906 17.859375 13.625 17.800781 13.617188 C 17.792969 13.617188 17.785156 13.617188 17.777344 13.617188 C 17.71875 13.609375 17.660156 13.605469 17.605469 13.605469 C 17.59375 13.605469 17.585938 13.605469 17.578125 13.605469 C 17.519531 13.601562 17.460938 13.601562 17.398438 13.601562 C 16.964844 13.601562 16.542969 13.664062 16.144531 13.78125 C 14.332031 14.277344 13.042969 15.902344 13.003906 17.867188 C 13 17.882812 13 17.898438 13 17.910156 C 13 17.929688 13 17.945312 13 17.960938 L 13 18 C 13 18.042969 13 18.089844 13.003906 18.132812 C 13.003906 18.136719 13.003906 18.144531 13.003906 18.152344 C 13.050781 19.582031 13.773438 20.832031 14.863281 21.601562 L 3.398438 21.601562 L 3.398438 3.199219 L 7.398438 3.199219 C 7.398438 3.640625 7.761719 4 8.199219 4 Z M 19.800781 1.601562 C 20.039062 1.601562 20.199219 1.761719 20.199219 2 L 20.199219 14.597656 C 20.164062 14.570312 20.132812 14.542969 20.097656 14.515625 C 19.878906 14.347656 19.648438 14.199219 19.398438 14.074219 L 19.398438 3.199219 C 19.398438 2.761719 19.039062 2.398438 18.601562 2.398438 L 14.601562 2.398438 L 14.601562 1.601562 Z M 8.199219 0.800781 L 13.800781 0.800781 L 13.800781 3.199219 L 8.199219 3.199219 Z M 18.601562 23.199219 L 2.199219 23.199219 C 1.960938 23.199219 1.800781 23.039062 1.800781 22.800781 L 1.800781 2 C 1.800781 1.761719 1.960938 1.601562 2.199219 1.601562 L 7.398438 1.601562 L 7.398438 2.398438 L 3.398438 2.398438 C 2.960938 2.398438 2.601562 2.761719 2.601562 3.199219 L 2.601562 21.601562 C 2.601562 22.039062 2.960938 22.398438 3.398438 22.398438 L 18.601562 22.398438 Z M 18.601562 23.199219"/>
    <path d="M5.640625 8.359375C5.039062 8.359375 4.601562 8.839844 4.601562 9.398438L4.601562 10.960938C4.601562 11.558594 5.039062 12 5.640625 12L6.25 12C6.429688 12.6875 7.058594 13.199219 7.800781 13.199219 8.542969 13.199219 9.171875 12.6875 9.347656 12L12.652344 12C12.828125 12.6875 13.457031 13.199219 14.199219 13.199219 14.941406 13.199219 15.570312 12.6875 15.75 12L16.359375 12C16.960938 12 17.398438 11.558594 17.441406 10.960938L17.441406 9.398438C17.441406 8.800781 16.960938 8.359375 16.398438 8.359375L15.546875 8.359375 14 6.199219C13.761719 5.839844 13.359375 5.640625 12.921875 5.640625L11.1875 5.640625C11.132812 5.613281 11.070312 5.601562 11 5.601562 10.929688 5.601562 10.867188 5.613281 10.8125 5.640625L9.078125 5.640625C8.640625 5.640625 8.238281 5.839844 8 6.199219L6.453125 8.359375zM7.800781 12.398438C7.359375 12.398438 7 12.039062 7 11.601562 7 11.160156 7.359375 10.800781 7.800781 10.800781 8.238281 10.800781 8.601562 11.160156 8.601562 11.601562 8.601562 12.039062 8.238281 12.398438 7.800781 12.398438zM14.199219 12.398438C13.761719 12.398438 13.398438 12.039062 13.398438 11.601562 13.398438 11.160156 13.761719 10.800781 14.199219 10.800781 14.640625 10.800781 15 11.160156 15 11.601562 15 12.039062 14.640625 12.398438 14.199219 12.398438zM16.640625 9.398438L16.640625 10.960938C16.640625 11.078125 16.519531 11.199219 16.398438 11.199219L15.761719 11.199219C15.558594 10.519531 15.039062 10 14.28125 10 14.265625 10 14.25 10 14.238281 10 14.222656 10 14.210938 10 14.199219 10 13.457031 10 12.828125 10.511719 12.652344 11.199219L9.398438 11.199219C9.199219 10.519531 8.601562 10 7.839844 10 7.832031 10 7.824219 10 7.816406 10 7.8125 10 7.804688 10 7.800781 10 7.058594 10 6.429688 10.511719 6.25 11.199219L5.640625 11.199219C5.519531 11.199219 5.398438 11.078125 5.398438 10.960938L5.398438 9.398438C5.398438 9.28125 5.519531 9.160156 5.640625 9.160156L6.421875 9.160156C6.472656 9.183594 6.53125 9.199219 6.601562 9.199219L15.398438 9.199219C15.46875 9.199219 15.527344 9.183594 15.578125 9.160156L16.398438 9.160156C16.519531 9.160156 16.640625 9.28125 16.640625 9.398438zM13.320312 6.601562L14.570312 8.359375 11.398438 8.359375 11.398438 6.398438 12.878906 6.398438C13.078125 6.398438 13.238281 6.480469 13.320312 6.601562zM8.601562 6.601562C8.71875 6.480469 8.878906 6.398438 9.039062 6.398438L10.601562 6.398438 10.601562 8.359375 7.386719 8.359375zM11 15.199219L5 15.199219C4.761719 15.199219 4.601562 15.359375 4.601562 15.601562 4.601562 15.839844 4.761719 16 5 16L11 16C11.238281 16 11.398438 15.839844 11.398438 15.601562 11.398438 15.359375 11.238281 15.199219 11 15.199219zM11 17.199219L5 17.199219C4.761719 17.199219 4.601562 17.359375 4.601562 17.601562 4.601562 17.839844 4.761719 18 5 18L11 18C11.238281 18 11.398438 17.839844 11.398438 17.601562 11.398438 17.359375 11.238281 17.199219 11 17.199219zM11 19.199219L5 19.199219C4.761719 19.199219 4.601562 19.359375 4.601562 19.601562 4.601562 19.839844 4.761719 20 5 20L11 20C11.238281 20 11.398438 19.839844 11.398438 19.601562 11.398438 19.359375 11.238281 19.199219 11 19.199219zM11 19.199219"/>
</svg>

<svg xmlns="http://www.w3.org/2000/svg" width="32" height="32" viewBox="0 0 24 24">
    <path d="M22.879 23.32l-2.211-2.367A4.385 4.385 0 0 0 21.801 18 4.39 4.39 0 0 0 21 15.46V2c0-.68-.52-1.2-1.2-1.2h-5.198c0-.44-.364-.8-.801-.8H8.199c-.437 0-.8.36-.8.8h-5.2C1.52.8 1 1.32 1 2v20.8c0 .68.52 1.2 1.2 1.2H19c.238 0 .398-.16.398-.398v-1.676c.243-.125.473-.27.688-.434l2.234 2.387c.078.082.16.121.282.121.078 0 .199-.04.277-.121a.385.385 0 0 0 0-.559zm-5.48-1.718c-2 0-3.598-1.602-3.598-3.602 0-1.559.972-2.875 2.347-3.379.008-.004.012-.004.016-.008.008 0 .016-.004.023-.004a3.45 3.45 0 0 1 .813-.168.652.652 0 0 1 .156-.03c.082-.009.16-.013.242-.013.063 0 .122.004.18.008h.012a3.556 3.556 0 0 1 2.691 1.434.135.135 0 0 0 .04.043A3.62 3.62 0 0 1 21 18c0 2-1.602 3.602-3.602 3.602zM8.198 4h5.602c.437 0 .8-.36.8-.8h4v10.562l-.093-.024c-.043-.008-.086-.02-.13-.031-.015-.004-.03-.008-.05-.008a2.107 2.107 0 0 0-.152-.031c-.008 0-.012-.004-.02-.004-.054-.008-.113-.02-.168-.023-.004-.004-.008-.004-.011-.004-.059-.008-.118-.012-.176-.02h-.024a1.315 1.315 0 0 0-.172-.012h-.027c-.058-.003-.117-.003-.18-.003-.433 0-.855.062-1.253.18-1.813.495-3.102 2.12-3.141 4.085-.004.016-.004.031-.004.043V18c0 .043 0 .09.004.133v.02c.047 1.429.77 2.679 1.86 3.449H3.397V3.199h4c0 .442.364.801.801.801zm11.602-2.398c.238 0 .398.16.398.398v12.598c-.035-.028-.066-.055-.101-.082a4.309 4.309 0 0 0-.7-.442V3.2c0-.437-.359-.8-.796-.8h-4v-.797zM8.199.8h5.602v2.398H8.199zm10.403 22.398H2.199c-.238 0-.398-.16-.398-.398V2c0-.238.16-.398.398-.398h5.2v.796h-4a.804.804 0 0 0-.797.801v18.403a.8.8 0 0 0 .796.796h15.204zm0 0"/>
    <path d="M5.64 8.36c-.6 0-1.038.48-1.038 1.038v1.563c0 .598.437 1.039 1.039 1.039h.609c.18.688.809 1.2 1.55 1.2.743 0 1.372-.512 1.548-1.2h3.304c.176.688.805 1.2 1.547 1.2.742 0 1.371-.512 1.551-1.2h.61c.6 0 1.038-.441 1.081-1.04V9.399c0-.597-.48-1.039-1.043-1.039h-.851L14 6.2a1.273 1.273 0 0 0-1.078-.558h-1.735A.413.413 0 0 0 11 5.6a.413.413 0 0 0-.188.04H9.079c-.437 0-.84.199-1.078.558L6.453 8.36zm2.16 4.038c-.44 0-.8-.359-.8-.796 0-.442.36-.801.8-.801.438 0 .802.36.802.8a.804.804 0 0 1-.801.797zm6.4 0c-.438 0-.802-.359-.802-.796 0-.442.364-.801.801-.801.442 0 .801.36.801.8 0 .438-.36.797-.8.797zm2.44-3v1.563c0 .117-.12.238-.242.238h-.636c-.203-.68-.723-1.199-1.48-1.199H14.198c-.742 0-1.37.512-1.547 1.2H9.398C9.2 10.52 8.602 10 7.84 10H7.8c-.742 0-1.371.512-1.551 1.2h-.61c-.12 0-.242-.122-.242-.24V9.399c0-.117.122-.238.243-.238h.78c.052.024.11.04.18.04h8.797a.42.42 0 0 0 .18-.04h.82c.122 0 .243.121.243.238zm-3.32-2.796l1.25 1.757h-3.172V6.4h1.48c.2 0 .36.081.442.203zm-4.718 0a.63.63 0 0 1 .437-.204h1.563V8.36H7.387zm0 0M11 15.2H5c-.238 0-.398.16-.398.402 0 .238.16.398.398.398h6c.238 0 .398-.16.398-.398 0-.243-.16-.403-.398-.403zm0 0M11 17.2H5c-.238 0-.398.16-.398.402 0 .238.16.398.398.398h6c.238 0 .398-.16.398-.398 0-.243-.16-.403-.398-.403zm0 0M11 19.2H5c-.238 0-.398.16-.398.402 0 .238.16.398.398.398h6c.238 0 .398-.16.398-.398 0-.243-.16-.403-.398-.403zm0 0"/>
</svg>
